!!!ONB: MCCC : ICS0079_03 : Extracted Monophonic Melody
!!!COM: Saint-Saëns, Camille
!!!OPR: Six Etudes pour piano
!!!OMV: 3
!!!SCT: Op.52
!!!ODT: 1877///
**kern
*staff1
=1
*clefG2
*k[b-e-a-d-]
*A-:
*M4/4
24A-
24A-
24A-
24G
24G
24G
24A-
24A-
24A-
24B-
24B-
24B-
24c
24c
24c
24g
24g
24g
24a-
24a-
24a-
24g
24g
24g
=2
24f
24f
24f
24e-
24e-
24e-
24d-
24d-
24d-
24c
24c
24c
24B-
24B-
24B-
24A-
24A-
24A-
24G
24G
24G
8r
=3
24A-
24A-
24A-
24B-
24B-
24B-
24c
24c
24c
24d-
24d-
24d-
24G
24G
24G
24d-
24d-
24d-
24g
24g
24g
24B-
24B-
24B-
=4
24A-
24A-
24A-
24B-
24B-
24B-
24c
24c
24c
24d-
24d-
24d-
24G
24G
24G
24d-
24d-
24d-
24g
24g
24g
24B-
24B-
24B-
=5
24A-
24A-
24A-
24B-
24B-
24B-
24c
24c
24c
24f
24f
24f
24B-
24B-
24B-
24e
24e
24e
24b-
24b-
24b-
24d-
24d-
24d-
=6
24c
24c
24c
24d
24d
24d
24e-
24e-
24e-
24a-
24a-
24a-
24d
24d
24d
24a-
24a-
24a-
24dd
24dd
24dd
24f
24f
24f
=7
24e-
24e-
24e-
8r
24e-
24e-
24e-
24a-
24a-
24a-
24ee-
24ee-
24ee-
24a-
24a-
24a-
24d
24d
24d
24A-
24A-
24A-
=8
24e-
24e-
24e-
8r
24e-
24e-
24e-
24a-
24a-
24a-
24ee-
24ee-
24ee-
24a-
24a-
24a-
24d-
24d-
24d-
24G
24G
24G
=9
24e-
24e-
24e-
8r
24e-
24e-
24e-
24a-
24a-
24a-
24ff
24ff
24ff
24a-
24a-
24a-
24e
24e
24e
24B-
24B-
24B-
=10
24e-
24e-
24e-
8r
24e-
24e-
24e-
24cc
24cc
24cc
24aa-
24aa-
24aa-
24ee-
24ee-
24ee-
24a-
24a-
24a-
24d-
24d-
24d-
=11
24gg
24gg
24gg
24dd-
24dd-
24dd-
24g
24g
24g
24c
24c
24c
24ff
24ff
24ff
24cc
24cc
24cc
24f
24f
24f
24c-
24c-
24c-
=12
24e
24e
24e
8r
4r
24g
24g
24g
24cc
24cc
24cc
24gg
24gg
24gg
24cc
24cc
24cc
=13
24g
24g
24g
8r
4r
2r
=14
24e
24e
24e
8r
4r
24g
24g
24g
24ee
24ee
24ee
24eee
24eee
24eee
24ee
24ee
24ee
=15
24g
24g
24g
8r
4r
2r
=16
24g
24g
24g
8r
4r
2r
=17
1r
=18
1r
=19
1r
=20
24e-
24e-
24e-
8r
4r
24e
24e
24e
8r
24f
24f
24f
8r
=21
24f
24f
24f
8r
4r
24g-
24g-
24g-
8r
24g
24g
24g
8r
=22
24g
24g
24g
8r
4r
24a-
24a-
24a-
8r
24a
24a
24a
8r
=23
24b-
24b-
24b-
8r
24dd-
24dd-
24dd-
8r
24cc
24cc
24cc
8r
24b-
24b-
24b-
24e-
24e-
24e-
=24
24ee-
24ee-
24ee-
24e-
24e-
24e-
24ee-
24ee-
24ee-
24e-
24e-
24e-
24eee-
24eee-
24eee-
24ee-
24ee-
24ee-
24eee-
24eee-
24eee-
24ee-
24ee-
24ee-
=25
24eeee-
24eeee-
24eeee-
24eee-
24eee-
24eee-
24eeee-
24eeee-
24eeee-
24eee-
24eee-
24eee-
24ee-
24ee-
24ee-
24dd
24dd
24dd
24dd-
24dd-
24dd-
24cc
24cc
24cc
=26
24ee-
24ee-
24ee-
24e-
24e-
24e-
24ee-
24ee-
24ee-
24e-
24e-
24e-
24eee-
24eee-
24eee-
24ee-
24ee-
24ee-
24eee-
24eee-
24eee-
24ee-
24ee-
24ee-
=27
24eeee-
24eeee-
24eeee-
24eee-
24eee-
24eee-
24eeee-
24eeee-
24eeee-
24eee-
24eee-
24eee-
24ee-
24ee-
24ee-
24dd
24dd
24dd
24dd-
24dd-
24dd-
24cc
24cc
24cc
=28
24aa-
24aa-
24aa-
24cc
24cc
24cc
24aa-
24aa-
24aa-
24b-
24b-
24b-
24a-
24a-
24a-
24c
24c
24c
24a-
24a-
24a-
24B-
24B-
24B-
=29
24aa-
24aa-
24aa-
24cc
24cc
24cc
24aa-
24aa-
24aa-
24b-
24b-
24b-
24f
24f
24f
24g-
24g-
24g-
24g
24g
24g
24a-
24a-
24a-
=30
24aa-
24aa-
24aa-
24cc
24cc
24cc
24aa-
24aa-
24aa-
24cc-
24cc-
24cc-
24aaa-
24aaa-
24aaa-
24ccc
24ccc
24ccc
24aaa-
24aaa-
24aaa-
24ccc-
24ccc-
24ccc-
=31
24aa-
24aa-
24aa-
24cc
24cc
24cc
24aa-
24aa-
24aa-
24cc-
24cc-
24cc-
2r
=32
4r
24a-
24a-
24a-
24e
24e
24e
24f
24f
24f
8r
4r
=33
4r
24b-
24b-
24b-
24g-
24g-
24g-
24g
24g
24g
8r
24e
24e
24e
8r
=34
4r
24cc
24cc
24cc
24g
24g
24g
24a-
24a-
24a-
24e
24e
24e
24f
24f
24f
8r
=35
24dd-
24dd-
24dd-
24g-
24g-
24g-
24g
24g
24g
24d
24d
24d
24ee-
24ee-
24ee-
24g
24g
24g
24a-
24a-
24a-
24e
24e
24e
=36
24ff
24ff
24ff
24g-
24g-
24g-
24gg-
24gg-
24gg-
24g
24g
24g
24aa-
24aa-
24aa-
24a
24a
24a
24bb-
24bb-
24bb-
24cc-
24cc-
24cc-
=37
8cc
24g
24g
24g
24a-
24a-
24a-
24b-
24b-
24b-
24cc
24cc
24cc
24gg
24gg
24gg
24aa-
24aa-
24aa-
24gg
24gg
24gg
=38
24ff
24ff
24ff
24ee-
24ee-
24ee-
24dd-
24dd-
24dd-
24cc
24cc
24cc
24b-
24b-
24b-
24a-
24a-
24a-
24g
24g
24g
24cc
24cc
24cc
=39
24a-
24a-
24a-
24b-
24b-
24b-
24cc
24cc
24cc
24dd-
24dd-
24dd-
24g
24g
24g
24dd-
24dd-
24dd-
24gg
24gg
24gg
24g
24g
24g
=40
24g-
24g-
24g-
24a-
24a-
24a-
24b-
24b-
24b-
24cc-
24cc-
24cc-
24f
24f
24f
24cc-
24cc-
24cc-
24ff
24ff
24ff
24f
24f
24f
=41
24e
24e
24e
24g-
24g-
24g-
24a-
24a-
24a-
24a
24a
24a
24e-
24e-
24e-
24cc
24cc
24cc
24aa-
24aa-
24aa-
24e-
24e-
24e-
=42
24d
24d
24d
24cc-
24cc-
24cc-
24gg
24gg
24gg
24ddd
24ddd
24ddd
24gg
24gg
24gg
24cc-
24cc-
24cc-
24d
24d
24d
8r
=43
4r
24f
24f
24f
8r
24f
24f
24f
8r
24e
24e
24e
8r
=44
4r
8r
24f
24f
24f
24cc
24cc
24cc
24aa
24aa
24aa
24aaa
24aaa
24aaa
24aa
24aa
24aa
=45
24cc
24cc
24cc
24f
24f
24f
4r
2r
=46
4r
8r
24f
24f
24f
24cc
24cc
24cc
24aa
24aa
24aa
24cccc
24cccc
24cccc
24aa
24aa
24aa
=47
24cc
24cc
24cc
24f
24f
24f
4r
2r
=48
4r
8r
24f
24f
24f
24cc
24cc
24cc
24f
24f
24f
24cc
24cc
24cc
24aa
24aa
24aa
=49
24fff
24fff
24fff
24aa
24aa
24aa
24fff
24fff
24fff
24cccc
24cccc
24cccc
4aaaa
4r
=50
*M5/4
4f[
2.f]
4r
=51
*M4/4
8f
8c
8B
8d
8f
8A-
8G
8f
=52
8e-
8B-
8A
8c
8e-
8G-
8F
8e-
=53
8d-
8f
8c
8d-
8B-
8d-
8A-
8B-
=54
1r
=55
8cc
8g
8f
8a-
8cc
8e-
8d
8cc
=56
8b-
8f
8e
8g
8b-
8d-
8c
8b-
=57
8a-
8cc
8g
8a-
8f
8a-
8e-
8f
=58
8d
8f
8c
8d
8c-
8a-
8g
8f
=59
8e-
8cc
8b-
8a-
8g
8dd-
8cc
8b-
=60
4a-
4dd
8r
8cc
4cc-[
=61
8cc-]
8dd-
4cc
8r
8b-
8a
8cc
=62
4b-
4cc
4dd-
4ff
=63
4bb-
4dd-
4cc
4ee
=64
8ff
8cc
8b
8dd
8ff
8a-
8g
8ff
=65
8ee-
8b-
8a
8cc
8ee-
8g-
8f
8ee-
=66
8dd-
8ff
8cc
8dd-
8b-
8dd-
8a-
8b-
=67
8g
8b-
8f
8g
8e
8dd-
8cc
8b-
=68
8a-
8cc
8g
8a-
8f
8a-
8e-
8f
=69
8d
8f
8c
8d
8c-
8a-
8g
8f
=70
8ccc
8gg
8ff
8aa-
8ccc
8ee-
8dd
8ccc
=71
8bb-
8ff
8ee
8gg
8bb-
8dd-
8cc
8bb-
=72
8aa-
8cc
8b-
8aa-
8gg
8b-
8a-
8gg
=73
8ff
8a-
8g
8ff
8ee-
8g-
8f
8ee-
=74
8dd-
8cc
8b-
8a-
8g
8b-
8ee-
8dd-
=75
4cc
4cc-
2b-[
=76
4b-]
4a
2a-
=77
8aa-
8ee-
8dd
8ff
8aa-
8cc-
8b-
8aa-
=78
8gg-
8dd-
8cc
8ee-
8gg-
8a
8a-
8gg-
=79
8ff
8aa-
8ee-
8ff
8dd-
8ff
8cc
8dd-
=80
4b-
4r
2r
=81
8ee-
8gg-
8dd-
8ee-
8cc
8ee-
8b-
8cc
=82
4a-
4r
2r
=83
8a-
8e-
8d-
8f
8b-
8f
8e-
8g-
=84
8cc
8a-
8dd-
8f
8g-
8dd-
8ee-
8a-
=85
2ff
2ee
=86
32ee-
32ff
32ee-
32ff
32ee-
32ff
32ee-
32ff
32ee-
32ff
32ee-
32ff
32ee-
32ff
32ee-
32ff
32ee-
32ff
32ee-
32ff
32ee-
32ff
32ee-
32ff
32ee-
32ff
32ee-
32ff
16dd-
16ee-
=87
4dd-
4e
4e-
8f
8g
=88
4a-
4d
4d-
8e-
8f
=89
4r
4a
4a-
8b-
8cc
=90
4dd-
4g
4g-
8a-
8b-
=91
4cc-
4cc
8dd-
8f
8b-
8a-
=92
4g-
4cc-
8cc
8g
8cc
8b-
=93
8a-
8e
8a-
8g-
4f
8r
8e-
=94
8d-
8A-
8G
8B-
8d-
8F
8E-
8d-
=95
8c
8G-
8F
8A-
8c-
8E-
8D-
8c-
=96
4B-
4A
4A-
8B-
8c
=97
8d-
8A-
4e
4e-
8f
8g
=98
8a-
8e-
8d
8f
8a-
8c-
4dd
=99
8ee-
8b-
8a
8cc
8ee-
8g-
8a
8ee-
=100
4dd
4dd-
4cc
4ee
=101
8ff
8cc
8b
8dd
8ff
8a-
8g
8ff
=102
4ee
2ff
4a-
=103
4g
4dd-
2cc
=104
4f
4g
4a-
4cc
=105
4ff
4a-
4g
4b
=106
4cc
4dd
4ee-
4ee
=107
8ff
8cc
8b
8dd
8ff
8a-
8g
8ff
=108
8ee-
8b-
8a
8cc
8ee-
8g-
8f
8ee-
=109
4dd-
4r
2r
=110
4f
4e-
8f
8g
8a-
8cc
=111
8ff
8a-
8g
8b
8cc
8dd
8ee-
8ee
=112
4ff
4aa-
4gg
8aa
8bb
=113
4ccc
4gg-
2ff[
=114
8ff]
8cc
8b-
8ff[
8ff]
16b-
16a-
4ff[
=115
8ff]
8ee-
4dd-
8ff
16dd-
16cc
4ff[
=116
8ff]
8ccc
4bb-
8fff
16bb-
16aa-
4fff[
=117
8fff]
8aa-
4gg
8fff
16eee
16ddd-
4fff[
=118
8fff]
8ddd-
4ccc
8fff
16ddd
16ccc
4fff[
=119
8fff]
8ccc
8bb
8ddd
8fff
8aa-
8gg
8fff
=120
8eee
8bb-
8aa
8ccc
8eee-
8gg-
8ff
8eee-
=121
8ddd
8aa-
8gg
8bb-
8ddd-
8ee
8ee-
8ddd-
=122
8ccc
8ee-
8dd
8ccc
8bb-
8dd-
8cc
8bb-
=123
8aa-
8ccc
8gg
8aa-
8ff
8aa-
8ee-
8ff
=124
8dd-
8ff
8cc
8dd-
8b-
8dd-
8a-
8b-
=125
8g-
8b-
8dd-
8gg-
8bb-
8ddd-
8ggg-
8bbb-
=126
4dddd-
4B-
4c
4ee
=127
4ff
4r
4e
4r
=128
4f
4r
2r
==
*-
